src/pos-icons/car-coolant-level.svg

<svg height="24" viewBox="0 0 24 24" width="24" xmlns="http://www.w3.org/2000/svg"><path d="m19 7v-2h2v-2h-8v2h2v2h-14v14h22v-14zm2 7.42c-.29-.29-.5-.42-1-.42-.67 0-.79.21-1.29.71s-1.38 1.29-2.71 1.29-2.21-.79-2.71-1.29-.62-.71-1.29-.71c-.22 0-.37.03-.5.08-.28.1-.45.29-.79.63-.5.5-1.38 1.29-2.71 1.29s-2.21-.79-2.71-1.29-.62-.71-1.29-.71c-.5 0-.71.13-1 .42v-5.42h18z"/></svg>

<?xml version="1.0" encoding="UTF-8"?><!DOCTYPE svg PUBLIC "-//W3C//DTD SVG 1.1//EN" "http://www.w3.org/Graphics/SVG/1.1/DTD/svg11.dtd"><svg xmlns="http://www.w3.org/2000/svg" xmlns:xlink="http://www.w3.org/1999/xlink" version="1.1" id="mdi-car-coolant-level" width="24" height="24" viewBox="0 0 24 24"><path d="M19 7V5H21V3H13V5H15V7H1V21H23V7H19M21 14.42C20.71 14.13 20.5 14 20 14C19.33 14 19.21 14.21 18.71 14.71S17.33 16 16 16 13.79 15.21 13.29 14.71 12.67 14 12 14C11.78 14 11.63 14.03 11.5 14.08C11.22 14.18 11.05 14.37 10.71 14.71C10.21 15.21 9.33 16 8 16S5.79 15.21 5.29 14.71 4.67 14 4 14C3.5 14 3.29 14.13 3 14.42V9H21V14.42Z" /></svg>
